;FLAVOR:Marlin
;TIME:4015
;Filament used: 2.62713m
;Layer height: 0.2
;MINX:56.278
;MINY:65.847
;MINZ:0.2
;MAXX:184.217
;MAXY:192.177
;MAXZ:3
;Generated with Cura_SteamEngine 5.2.1
M140 S50
M105
M190 S50
M104 S200
M105
M109 S200
M82 ;absolute extrusion mode
; Ender 3 Custom Start G-code
G92 E0 ; Reset Extruder
G28 ; Home all axes
G1 Z2.0 F3000 ; Move Z Axis up little to prevent scratching of Heat Bed
G1 X0.1 Y20 Z0.3 F5000.0 ; Move to start position
G1 X0.1 Y200.0 Z0.3 F1500.0 E15 ; Draw the first line
G1 X0.4 Y200.0 Z0.3 F5000.0 ; Move to side a little
G1 X0.4 Y20 Z0.3 F1500.0 E30 ; Draw the second line
G92 E0 ; Reset Extruder
G1 Z2.0 F3000 ; Move Z Axis up little to prevent scratching of Heat Bed
G1 X5 Y20 Z0.3 F5000.0 ; Move over to prevent blob squish
G92 E0
G92 E0
G1 F2700 E-5
;LAYER_COUNT:15
;LAYER:0
M107
;MESH:Quest Flat Holder To Store v4.stl
G0 F6000 X142.648 Y190.754 Z0.2
;TYPE:WALL-INNER
G1 F2700 E0
G1 F1200 X142.945 Y191.039 E0.01369
G1 X143.272 Y191.281 E0.02722
G1 X143.621 Y191.473 E0.04047
G1 X144.016 Y191.624 E0.05453
G1 X144.42 Y191.722 E0.06836
G1 X144.866 Y191.775 E0.0833
G1 X145.344 Y191.777 E0.0992
G1 X145.854 Y191.727 E0.11624
G1 X146.398 Y191.624 E0.13466
G1 X146.946 Y191.478 E0.15352
G1 X148.169 Y191.011 E0.19706
G1 X149.435 Y190.363 E0.24436
G1 X150.735 Y189.552 E0.29533
G1 X152.048 Y188.598 E0.34931
G1 X153.347 Y187.534 E0.40516
G1 X154.618 Y186.377 E0.46232
G1 X155.839 Y185.155 E0.51978
G1 X157.002 Y183.881 E0.57715
G1 X158.094 Y182.573 E0.63382
G1 X159.104 Y181.242 E0.68939
G1 X160.028 Y179.896 E0.7437
G1 X160.842 Y178.579 E0.79519
G1 X161.601 Y177.196 E0.84766
G1 X162.242 Y175.852 E0.89719
G1 X162.792 Y174.499 E0.94576
G1 X163.23 Y173.187 E0.99177
G1 X163.574 Y171.866 E1.03717
G1 X163.825 Y170.544 E1.08193
G1 X164.923 Y163.349 E1.324
G1 X165.912 Y156.311 E1.56039
G1 X166.784 Y149.45 E1.79042
G1 X167.549 Y142.757 E2.01448
G1 X168.218 Y136.257 E2.23181
G1 X169.653 Y120.981 E2.74213
G1 X169.948 Y118.123 E2.8377
G1 X170.267 Y115.341 E2.93083
G1 X170.619 Y112.639 E3.02146
G1 X171.018 Y110.021 E3.10954
G1 X171.47 Y107.502 E3.19466
G1 X171.992 Y105.052 E3.27798
G1 X172.583 Y102.738 E3.35741
G1 X173.278 Y100.464 E3.4365
G1 X174.063 Y98.317 E3.51253
G1 X174.935 Y96.303 E3.58553
G1 X175.9 Y94.416 E3.65602
G1 X176.987 Y92.604 E3.7263
G1 X178.209 Y90.864 E3.79702
G1 X179.518 Y89.269 E3.86565
G1 X180.902 Y87.818 E3.93234
G1 X182.455 Y86.412 E4.00202
G1 X183.817 Y85.352 E4.05942
G1 X183.817 Y82.434 E4.15647
G1 X183.817 Y76.247 E4.36225
G1 X156.703 Y76.247 E5.26407
G1 X156.489 Y76.15 E5.27188
G1 X156.366 Y76.043 E5.27731
G1 X156.238 Y75.802 E5.28638
G1 X156.215 Y75.595 E5.29331
G1 X157.815 Y67.971 E5.55241
G1 X157.846 Y67.585 E5.56529
G1 X157.785 Y67.231 E5.57724
G1 X157.64 Y66.914 E5.58883
G1 X157.417 Y66.64 E5.60058
G1 X157.128 Y66.427 E5.61252
G1 X156.805 Y66.298 E5.62409
G1 X156.414 Y66.247 E5.6372
G1 X146.872 Y66.247 E5.95457
G1 X146.481 Y66.297 E5.96768
G1 X146.16 Y66.424 E5.97916
G1 X145.876 Y66.631 E5.99085
G1 X145.656 Y66.897 E6.00233
G1 X145.505 Y67.217 E6.0141
G1 X145.44 Y67.56 E6.02571
G1 X145.464 Y67.943 E6.03848
G1 X146.902 Y75.535 E6.29548
G1 X146.909 Y75.716 E6.3015
G1 X146.866 Y75.879 E6.30711
G1 X146.731 Y76.078 E6.31511
G1 X146.547 Y76.2 E6.32245
G1 X146.38 Y76.244 E6.32819
G1 X116.739 Y76.247 E7.31406
G1 X116.56 Y76.19 E7.32031
G1 X116.368 Y76.045 E7.32831
G1 X116.235 Y75.793 E7.33779
G1 X116.215 Y75.593 E7.34447
G1 X117.815 Y67.971 E7.6035
G1 X117.846 Y67.585 E7.61638
G1 X117.785 Y67.231 E7.62833
G1 X117.64 Y66.914 E7.63993
G1 X117.417 Y66.64 E7.65168
G1 X117.128 Y66.427 E7.66362
G1 X116.805 Y66.298 E7.67519
G1 X116.414 Y66.247 E7.6883
G1 X106.872 Y66.247 E8.00567
G1 X106.481 Y66.297 E8.01878
G1 X106.16 Y66.424 E8.03026
G1 X105.876 Y66.631 E8.04195
G1 X105.656 Y66.897 E8.05343
G1 X105.505 Y67.217 E8.0652
G1 X105.44 Y67.56 E8.07681
G1 X105.464 Y67.943 E8.08957
G1 X106.914 Y75.599 E8.34874
G1 X106.895 Y75.793 E8.35522
G1 X106.762 Y76.045 E8.3647
G1 X106.57 Y76.19 E8.3727
G1 X106.391 Y76.247 E8.37895
G1 X76.786 Y76.247 E9.36362
G1 X76.529 Y76.174 E9.3725
G1 X76.407 Y76.085 E9.37753
G1 X76.268 Y75.888 E9.38555
G1 X76.222 Y75.722 E9.39127
G1 X76.23 Y75.523 E9.3979
G1 X77.815 Y67.971 E9.65455
G1 X77.846 Y67.585 E9.66743
G1 X77.785 Y67.231 E9.67938
G1 X77.64 Y66.914 E9.69097
G1 X77.417 Y66.64 E9.70272
G1 X77.128 Y66.427 E9.71466
G1 X76.805 Y66.298 E9.72623
G1 X76.414 Y66.247 E9.73935
G1 X66.872 Y66.247 E10.05672
G1 X66.481 Y66.297 E10.06983
G1 X66.16 Y66.424 E10.08131
G1 X65.876 Y66.631 E10.093
G1 X65.656 Y66.897 E10.10448
G1 X65.505 Y67.217 E10.11625
G1 X65.44 Y67.56 E10.12786
G1 X65.464 Y67.943 E10.14062
G1 X66.902 Y75.535 E10.39762
G1 X66.908 Y75.722 E10.40384
G1 X66.828 Y75.954 E10.41201
G1 X66.632 Y76.156 E10.42137
G1 X66.36 Y76.246 E10.4309
G1 X61.156 Y76.247 E10.60398
G1 X61.157 Y85.218 E10.90236
G1 X61.75 Y85.427 E10.92327
G1 X62.672 Y85.889 E10.95757
G1 X63.475 Y86.438 E10.98993
G1 X64.207 Y87.1 E11.02275
G1 X64.848 Y87.852 E11.05562
G1 X65.408 Y88.702 E11.08947
G1 X65.881 Y89.639 E11.12438
G1 X66.28 Y90.668 E11.16109
G1 X66.581 Y91.731 E11.19784
G1 X66.807 Y92.84 E11.23548
G1 X66.959 Y93.958 E11.27301
G1 X67.05 Y95.181 E11.3138
G1 X67.041 Y97.55 E11.39259
G1 X66.957 Y98.698 E11.43087
G1 X66.821 Y99.866 E11.46998
G1 X66.643 Y100.955 E11.50669
G1 X66.434 Y101.955 E11.54066
G1 X66.176 Y102.925 E11.57405
G1 X65.913 Y103.724 E11.60203
G1 X65.582 Y104.522 E11.63076
G1 X65.278 Y105.087 E11.6521
G1 X64.883 Y105.635 E11.67457
G1 X64.442 Y106.026 E11.69417
G1 X63.907 Y106.26 E11.71359
G1 X63.448 Y106.257 E11.72886
G1 X63.229 Y106.213 E11.73629
G1 X62.804 Y106.027 E11.75172
G1 X62.37 Y105.668 E11.77045
G1 X61.972 Y105.187 E11.79122
G1 X61.62 Y104.653 E11.81249
G1 X60.977 Y103.456 E11.85768
G1 X60.341 Y102.141 E11.90627
G1 X59.722 Y100.923 E11.95171
G1 X59.419 Y100.4 E11.97181
G1 X59.119 Y99.955 E11.98966
G1 X58.829 Y99.6 E12.00491
G1 X58.561 Y99.347 E12.01717
G1 X58.329 Y99.194 E12.02641
G1 X58.129 Y99.121 E12.03349
G1 X57.793 Y99.145 E12.04469
G1 X57.605 Y99.237 E12.05166
G1 X57.398 Y99.406 E12.06054
G1 X57.194 Y99.649 E12.0711
G1 X57.008 Y99.969 E12.08341
G1 X56.849 Y100.375 E12.09791
G1 X56.737 Y100.826 E12.11336
G1 X56.678 Y101.347 E12.1308
G1 X56.683 Y101.924 E12.15
G1 X56.761 Y102.551 E12.17101
G1 X56.918 Y103.227 E12.19409
G1 X57.156 Y103.938 E12.21903
G1 X57.478 Y104.681 E12.24596
G1 X57.883 Y105.457 E12.27508
G1 X58.362 Y106.244 E12.30572
G1 X59.517 Y107.875 E12.37219
G1 X60.861 Y109.528 E12.44305
G1 X63.551 Y112.638 E12.57982
G1 X64.159 Y113.382 E12.61177
G1 X64.69 Y114.082 E12.641
G1 X65.189 Y114.811 E12.67038
G1 X65.587 Y115.503 E12.69693
G1 X65.865 Y116.112 E12.7192
G1 X66.085 Y116.81 E12.74354
G1 X66.175 Y117.477 E12.76592
G1 X66.137 Y118.116 E12.78721
G1 X65.976 Y118.725 E12.80816
G1 X65.697 Y119.306 E12.8296
G1 X65.297 Y119.866 E12.85249
G1 X64.849 Y120.351 E12.87445
G1 X64.335 Y120.813 E12.89744
G1 X63.761 Y121.264 E12.92172
G1 X62.519 Y122.133 E12.97213
G1 X61.199 Y123.029 E13.0252
G1 X59.922 Y123.98 E13.07815
G1 X58.775 Y125.037 E13.13003
G1 X58.3 Y125.584 E13.15413
G1 X57.887 Y126.161 E13.17773
G1 X57.549 Y126.757 E13.20052
G1 X57.284 Y127.384 E13.22316
G1 X57.107 Y127.994 E13.24428
G1 X57.007 Y128.613 E13.26514
G1 X56.989 Y129.217 E13.28523
G1 X57.045 Y129.788 E13.30432
G1 X57.166 Y130.294 E13.32162
G1 X57.34 Y130.734 E13.33736
G1 X57.536 Y131.039 E13.34942
G1 X57.71 Y131.201 E13.35732
G1 X57.902 Y131.237 E13.36382
G1 X58.073 Y131.145 E13.37028
G1 X58.335 Y130.891 E13.38242
G1 X58.641 Y130.475 E13.39959
G1 X58.966 Y129.928 E13.42075
G1 X59.654 Y128.628 E13.46967
G1 X60.022 Y127.966 E13.49487
G1 X60.397 Y127.383 E13.51792
G1 X60.833 Y126.853 E13.54075
G1 X61.333 Y126.446 E13.56219
G1 X61.904 Y126.204 E13.58282
G1 X62.499 Y126.155 E13.60267
G1 X63.076 Y126.276 E13.62228
G1 X63.563 Y126.48 E13.63984
G1 X64.017 Y126.761 E13.6576
G1 X64.485 Y127.137 E13.67757
G1 X64.838 Y127.491 E13.6942
G1 X65.237 Y127.99 E13.71545
G1 X65.524 Y128.439 E13.73317
G1 X65.828 Y129.051 E13.7559
G1 X66.051 Y129.657 E13.77738
G1 X66.213 Y130.257 E13.79805
G1 X66.337 Y130.966 E13.82199
G1 X66.402 Y131.716 E13.84703
G1 X66.406 Y132.521 E13.8738
G1 X66.344 Y133.376 E13.90231
G1 X66.223 Y134.199 E13.92998
G1 X66.028 Y135.094 E13.96045
G1 X65.766 Y135.982 E13.99124
G1 X65.458 Y136.822 E14.021
G1 X65.055 Y137.736 E14.05422
G1 X64.621 Y138.568 E14.08543
G1 X64.114 Y139.412 E14.11818
G1 X63.524 Y140.269 E14.15278
G1 X62.317 Y141.745 E14.2162
G1 X60.961 Y143.14 E14.28091
G1 X58.52 Y145.39 E14.39132
G1 X58.046 Y145.867 E14.41369
G1 X57.666 Y146.289 E14.43258
G1 X57.366 Y146.688 E14.44918
G1 X57.166 Y147.029 E14.46233
G1 X57.056 Y147.318 E14.47261
G1 X57.038 Y147.72 E14.486
G1 X57.181 Y147.962 E14.49535
G1 X57.431 Y148.043 E14.50409
G1 X57.713 Y147.97 E14.51378
G1 X58.052 Y147.712 E14.52795
G1 X58.323 Y147.454 E14.54039
G1 X58.927 Y146.751 E14.57122
G1 X59.58 Y145.95 E14.60559
G1 X60.297 Y145.161 E14.64105
G1 X61.005 Y144.55 E14.67215
G1 X61.421 Y144.297 E14.68835
G1 X61.854 Y144.122 E14.70388
G1 X62.327 Y144.044 E14.71983
G1 X62.809 Y144.08 E14.7359
G1 X63.284 Y144.226 E14.75243
G1 X63.783 Y144.489 E14.77119
G1 X64.18 Y144.769 E14.78735
G1 X64.663 Y145.205 E14.80899
G1 X65.075 Y145.675 E14.82978
G1 X65.445 Y146.21 E14.85141
G1 X65.765 Y146.821 E14.87435
G1 X65.975 Y147.402 E14.8949
G1 X66.111 Y148.077 E14.9178
G1 X66.136 Y148.749 E14.94017
G1 X66.049 Y149.469 E14.96429
G1 X65.858 Y150.146 E14.98769
G1 X65.527 Y150.904 E15.0152
G1 X65.165 Y151.524 E15.03908
G1 X64.669 Y152.221 E15.06753
G1 X64.163 Y152.833 E15.09394
G1 X62.976 Y154.07 E15.15096
G1 X60.479 Y156.42 E15.26501
G1 X59.395 Y157.537 E15.31678
G1 X58.499 Y158.637 E15.36397
G1 X58.148 Y159.158 E15.38486
G1 X57.852 Y159.682 E15.40488
G1 X57.616 Y160.191 E15.42354
G1 X57.437 Y160.698 E15.44142
G1 X57.319 Y161.162 E15.45734
G1 X57.253 Y161.611 E15.47244
G1 X57.237 Y162.021 E15.48609
G1 X57.264 Y162.39 E15.49839
G1 X57.328 Y162.701 E15.50895
G1 X57.476 Y163.025 E15.5208
G1 X57.718 Y162.795 E15.5319
G1 X57.95 Y162.505 E15.54426
G1 X58.208 Y162.125 E15.55953
G1 X58.79 Y161.126 E15.59799
G1 X59.399 Y160.014 E15.64015
G1 X60.034 Y158.926 E15.68205
G1 X60.362 Y158.43 E15.70183
G1 X60.695 Y157.998 E15.71997
G1 X61.071 Y157.602 E15.73814
G1 X61.467 Y157.304 E15.75462
G1 X61.891 Y157.115 E15.77006
G1 X62.333 Y157.045 E15.78494
G1 X62.759 Y157.071 E15.79914
G1 X63.162 Y157.158 E15.81285
G1 X63.94 Y157.459 E15.8406
G1 X64.336 Y157.706 E15.85612
G1 X64.704 Y158.03 E15.87243
G1 X65.001 Y158.446 E15.88943
G1 X65.192 Y158.931 E15.90677
G1 X65.277 Y159.478 E15.92518
G1 X65.266 Y160.025 E15.94337
G1 X65.184 Y160.651 E15.96437
G1 X65.051 Y161.281 E15.98579
G1 X64.305 Y164.103 E16.08287
G1 X64.035 Y165.554 E16.13196
G1 X63.943 Y166.937 E16.17806
G1 X63.968 Y167.558 E16.19873
G1 X64.034 Y168.144 E16.21835
G1 X64.134 Y168.68 E16.23648
G1 X64.256 Y169.142 E16.25238
G1 X64.395 Y169.558 E16.26696
G1 X64.535 Y169.879 E16.27861
G1 X64.663 Y170.111 E16.28742
G1 X64.845 Y170.361 E16.29771
G1 X65.042 Y170.926 E16.31761
G1 X65.31 Y171.442 E16.33695
G1 X65.71 Y172.039 E16.36085
G1 X66.241 Y172.694 E16.3889
G1 X66.891 Y173.366 E16.41999
G1 X67.648 Y174.009 E16.45303
G1 X68.496 Y174.571 E16.48686
G1 X69.402 Y175.002 E16.52023
G1 X70.342 Y175.256 E16.55262
G1 X70.771 Y175.301 E16.56697
G1 X71.193 Y175.29 E16.58101
G1 X71.583 Y175.225 E16.59416
G1 X71.967 Y175.099 E16.6076
G1 X72.29 Y174.925 E16.6198
G1 X72.592 Y174.688 E16.63257
G1 X72.854 Y174.399 E16.64554
G1 X73.075 Y174.051 E16.65925
G1 X73.255 Y173.65 E16.67387
G1 X73.385 Y173.202 E16.68939
G1 X73.466 Y172.72 E16.70565
G1 X73.491 Y172.223 E16.7222
G1 X73.464 Y171.724 E16.73882
G1 X73.386 Y171.233 E16.75535
G1 X73.266 Y170.783 E16.77084
G1 X73.101 Y170.348 E16.78632
G1 X72.668 Y169.601 E16.81503
G1 X72.134 Y168.998 E16.84182
G1 X71.513 Y168.463 E16.86909
G1 X70.925 Y167.974 E16.89452
G1 X70.298 Y167.298 E16.92519
G1 X70.047 Y166.916 E16.94039
G1 X69.811 Y166.438 E16.95812
G1 X69.61 Y165.875 E16.97801
G1 X69.466 Y165.307 E16.99749
G1 X69.354 Y164.64 E17.01999
G1 X69.269 Y163.883 E17.04533
G1 X69.215 Y163.094 E17.07163
G1 X69.179 Y162.186 E17.10185
G1 X69.159 Y161.191 E17.13495
G1 X69.152 Y160.056 E17.17271
G1 X69.22 Y140.118 E17.83585
G1 X69.264 Y136.121 E17.9688
G1 X69.337 Y132.128 E18.10163
G1 X69.439 Y128.196 E18.23245
G1 X69.569 Y124.277 E18.36287
G1 X69.711 Y120.715 E18.48144
G1 X69.948 Y115.592 E18.65201
G1 X70.546 Y104.611 E19.01778
G1 X70.677 Y102.514 E19.08766
G1 X70.814 Y100.659 E19.14953
G1 X70.889 Y99.805 E19.17804
G1 X71.068 Y98.261 E19.22974
G1 X71.299 Y96.944 E19.27421
G1 X71.635 Y95.703 E19.31697
G1 X72.092 Y94.596 E19.35681
G1 X72.691 Y93.607 E19.39526
G1 X73.48 Y92.672 E19.43596
G1 X74.351 Y91.882 E19.47507
G1 X75.393 Y91.128 E19.51784
G1 X76.563 Y90.43 E19.56316
G1 X77.812 Y89.803 E19.60964
G1 X79.104 Y89.248 E19.65641
G1 X80.516 Y88.727 E19.70647
G1 X81.94 Y88.281 E19.7561
G1 X83.38 Y87.904 E19.80561
G1 X84.871 Y87.587 E19.85631
G1 X86.366 Y87.341 E19.9067
G1 X87.847 Y87.162 E19.95632
G1 X89.308 Y87.052 E20.00505
G1 X90.072 Y86.826 E20.03155
G1 X90.522 Y86.647 E20.04765
G1 X90.064 Y86.465 E20.06405
G1 X89.31 Y86.242 E20.0902
G1 X89.012 Y86.043 E20.10212
G1 X88.893 Y85.794 E20.11129
G1 X88.885 Y85.584 E20.11828
G1 X88.929 Y85.412 E20.12419
G1 X89.053 Y85.226 E20.13162
G1 X89.197 Y85.118 E20.13761
G1 X89.414 Y85.047 E20.14521
G1 X144.502 Y85.047 E21.97744
G1 X144.698 Y85.116 E21.98435
G1 X144.896 Y85.285 E21.99301
G1 X145.016 Y85.594 E22.00403
G1 X144.977 Y85.864 E22.01311
G1 X144.754 Y86.327 E22.0302
G1 X144.65 Y86.633 E22.04095
G1 X144.618 Y86.854 E22.04838
G1 X144.668 Y87.055 E22.05527
G1 X144.896 Y87.228 E22.06478
G1 X145.171 Y87.326 E22.07449
G1 X145.516 Y87.409 E22.0863
G1 X145.944 Y87.475 E22.1007
G1 X147.011 Y87.569 E22.13633
G1 X148.248 Y87.652 E22.17756
G1 X149.581 Y87.77 E22.22207
G1 X150.918 Y87.957 E22.26697
G1 X152.274 Y88.234 E22.313
G1 X153.534 Y88.583 E22.35649
G1 X154.712 Y88.99 E22.39794
G1 X155.889 Y89.474 E22.44027
G1 X156.935 Y89.973 E22.47882
G1 X157.881 Y90.488 E22.51464
G1 X158.782 Y91.043 E22.54984
G1 X159.617 Y91.63 E22.58379
G1 X160.428 Y92.296 E22.61869
G1 X161.141 Y92.979 E22.65153
G1 X161.765 Y93.673 E22.68257
G1 X162.384 Y94.484 E22.7165
G1 X162.913 Y95.304 E22.74896
G1 X163.368 Y96.15 E22.78091
G1 X163.776 Y97.073 E22.81447
G1 X164.118 Y98.036 E22.84846
G1 X164.402 Y99.067 E22.88403
G1 X164.625 Y100.134 E22.92029
G1 X164.8 Y101.289 E22.95914
G1 X164.923 Y102.49 E22.9993
G1 X165.001 Y103.801 E23.04298
G1 X165.032 Y105.207 E23.08975
G1 X165.017 Y106.823 E23.1435
G1 X165.017 Y150.671 E24.60189
G1 X164.883 Y154.164 E24.71816
G1 X164.533 Y157.662 E24.83508
G1 X163.966 Y161.149 E24.95258
G1 X163.167 Y164.717 E25.07419
G1 X162.159 Y168.191 E25.1945
G1 X161.565 Y169.931 E25.25566
G1 X160.939 Y171.587 E25.31454
G1 X160.249 Y173.237 E25.37402
G1 X159.521 Y174.804 E25.43149
G1 X158.732 Y176.334 E25.48875
G1 X157.896 Y177.772 E25.54407
G1 X157.019 Y179.105 E25.59714
G1 X156.068 Y180.346 E25.64914
G1 X155.133 Y181.386 E25.69566
G1 X154.086 Y182.338 E25.74273
G1 X153.072 Y183.059 E25.78411
G1 X151.951 Y183.649 E25.82624
G1 X150.833 Y184.031 E25.86554
G1 X149.713 Y184.226 E25.90335
G1 X148.569 Y184.254 E25.94141
G1 X147.497 Y184.158 E25.97721
G1 X144.668 Y183.647 E26.07282
G1 X143.899 Y183.584 E26.09849
G1 X143.235 Y183.643 E26.12066
G1 X142.974 Y183.715 E26.12966
G1 X142.727 Y183.825 E26.13865
G1 X142.505 Y183.969 E26.14746
G1 X142.294 Y184.157 E26.15686
G1 X142.102 Y184.391 E26.16692
G1 X141.933 Y184.662 E26.17755
G1 X141.641 Y185.385 E26.20348
G1 X141.463 Y186.257 E26.23308
G1 X141.419 Y187.226 E26.26534
G1 X141.517 Y188.225 E26.29873
G1 X141.761 Y189.19 E26.33184
G1 X142.148 Y190.06 E26.36351
G1 X142.38 Y190.423 E26.37783
G1 X142.648 Y190.754 E26.392
G0 F6000 X142.353 Y191.025
;TYPE:WALL-OUTER
G1 F1200 X142.686 Y191.345 E26.40736
G1 X143.056 Y191.619 E26.42267
G1 X143.452 Y191.837 E26.43771
G1 X143.897 Y192.007 E26.45355
G1 X144.349 Y192.116 E26.46902
G1 X144.842 Y192.175 E26.48553
G1 X145.362 Y192.177 E26.50283
G1 X145.91 Y192.123 E26.52114
