;FLAVOR:Marlin
;TIME:3626
;Filament used: 2.24699m
;Layer height: 0.2
;MINX:34.196
;MINY:59.366
;MINZ:0.2
;MAXX:167.356
;MAXY:182.914
;MAXZ:3
;Generated with Cura_SteamEngine 5.2.1
M140 S50
M105
M190 S50
M104 S200
M105
M109 S200
M82 ;absolute extrusion mode
; Ender 3 Custom Start G-code
G92 E0 ; Reset Extruder
G28 ; Home all axes
G1 Z2.0 F3000 ; Move Z Axis up little to prevent scratching of Heat Bed
G1 X0.1 Y20 Z0.3 F5000.0 ; Move to start position
G1 X0.1 Y200.0 Z0.3 F1500.0 E15 ; Draw the first line
G1 X0.4 Y200.0 Z0.3 F5000.0 ; Move to side a little
G1 X0.4 Y20 Z0.3 F1500.0 E30 ; Draw the second line
G92 E0 ; Reset Extruder
G1 Z2.0 F3000 ; Move Z Axis up little to prevent scratching of Heat Bed
G1 X5 Y20 Z0.3 F5000.0 ; Move over to prevent blob squish
G92 E0
G92 E0
G1 F2700 E-5
;LAYER_COUNT:15
;LAYER:0
M107
;MESH:Quest Flat Holder To Store v6.stl
G0 F6000 X118.86 Y182.378 Z0.2
;TYPE:WALL-INNER
G1 F2700 E0
G1 F1200 X119.304 Y182.47 E0.01508
G1 X119.782 Y182.514 E0.03105
G1 X120.281 Y182.51 E0.04764
G1 X121.424 Y182.351 E0.08603
G1 X122.648 Y182.001 E0.12837
G1 X123.979 Y181.464 E0.17611
G1 X125.345 Y180.768 E0.2271
G1 X126.733 Y179.934 E0.28095
G1 X128.122 Y178.985 E0.33691
G1 X129.488 Y177.945 E0.39401
G1 X130.811 Y176.834 E0.45147
G1 X132.081 Y175.665 E0.50888
G1 X133.282 Y174.455 E0.56558
G1 X134.407 Y173.218 E0.6212
G1 X135.445 Y171.959 E0.67547
G1 X136.392 Y170.687 E0.72821
G1 X137.247 Y169.407 E0.77941
G1 X138 Y168.124 E0.82889
G1 X138.66 Y166.837 E0.87699
G1 X139.218 Y165.552 E0.92359
G1 X139.683 Y164.255 E0.96942
G1 X140.043 Y162.957 E1.01422
G1 X141.762 Y155.902 E1.25573
G1 X143.359 Y148.977 E1.4921
G1 X144.829 Y142.207 E1.72252
G1 X146.175 Y135.605 E1.94662
G1 X147.408 Y129.187 E2.16399
G1 X150.165 Y114.107 E2.67387
G1 X150.708 Y111.287 E2.76938
G1 X151.268 Y108.542 E2.86256
G1 X151.855 Y105.881 E2.9532
G1 X152.48 Y103.307 E3.04129
G1 X153.155 Y100.825 E3.12684
G1 X153.887 Y98.442 E3.20976
G1 X154.682 Y96.177 E3.2896
G1 X155.551 Y94.019 E3.36697
G1 X156.516 Y91.948 E3.44297
G1 X157.585 Y89.97 E3.51775
G1 X158.715 Y88.173 E3.58835
G1 X159.973 Y86.443 E3.6595
G1 X161.316 Y84.85 E3.7288
G1 X162.73 Y83.403 E3.79609
G1 X164.298 Y82.022 E3.86558
G1 X165.897 Y80.811 E3.9323
G1 X166.16 Y80.639 E3.94275
G1 X156.39 Y79.785 E4.26894
G1 X156.105 Y79.684 E4.279
G1 X155.937 Y79.511 E4.28702
G1 X155.847 Y79.264 E4.29576
G1 X155.845 Y79.108 E4.30095
G1 X155.904 Y78.9 E4.30814
G1 X155.983 Y78.78 E4.31292
G1 X156.177 Y78.627 E4.32114
G1 X156.363 Y78.566 E4.32765
G1 X166.21 Y78.566 E4.65516
G1 X166.21 Y74.166 E4.8015
G1 X166.21 Y69.766 E4.94785
G1 X139.126 Y69.766 E5.84867
G1 X138.924 Y69.694 E5.8558
G1 X138.794 Y69.599 E5.86115
G1 X138.665 Y69.416 E5.8686
G1 X138.616 Y69.246 E5.87449
G1 X138.623 Y69.042 E5.88127
G1 X140.208 Y61.49 E6.13793
G1 X140.239 Y61.104 E6.15081
G1 X140.178 Y60.75 E6.16276
G1 X140.033 Y60.433 E6.17435
G1 X139.809 Y60.159 E6.18612
G1 X139.521 Y59.946 E6.19803
G1 X139.198 Y59.817 E6.2096
G1 X138.806 Y59.767 E6.22275
G1 X129.264 Y59.766 E6.54011
G1 X128.875 Y59.815 E6.55315
G1 X128.553 Y59.943 E6.56468
G1 X128.268 Y60.15 E6.5764
G1 X128.049 Y60.415 E6.58783
G1 X127.898 Y60.736 E6.59963
G1 X127.833 Y61.079 E6.61124
G1 X127.857 Y61.462 E6.624
G1 X129.308 Y69.124 E6.88337
G1 X129.281 Y69.337 E6.89051
G1 X129.215 Y69.483 E6.89584
G1 X129.062 Y69.649 E6.90335
G1 X128.776 Y69.766 E6.91363
G1 X99.157 Y69.764 E7.89876
G1 X98.891 Y69.674 E7.9081
G1 X98.688 Y69.461 E7.91789
G1 X98.615 Y69.237 E7.92572
G1 X98.623 Y69.042 E7.93221
G1 X100.208 Y61.49 E8.18887
G1 X100.239 Y61.104 E8.20175
G1 X100.178 Y60.75 E8.21369
G1 X100.033 Y60.433 E8.22529
G1 X99.809 Y60.159 E8.23706
G1 X99.521 Y59.946 E8.24897
G1 X99.198 Y59.817 E8.26054
G1 X98.806 Y59.767 E8.27368
G1 X89.264 Y59.766 E8.59105
G1 X88.875 Y59.815 E8.60409
G1 X88.553 Y59.943 E8.61562
G1 X88.268 Y60.15 E8.62733
G1 X88.049 Y60.415 E8.63877
G1 X87.898 Y60.736 E8.65057
G1 X87.833 Y61.079 E8.66218
G1 X87.857 Y61.462 E8.67494
G1 X89.302 Y69.096 E8.93336
G1 X89.271 Y69.367 E8.94243
G1 X89.087 Y69.63 E8.95311
G1 X88.915 Y69.729 E8.95971
G1 X88.756 Y69.764 E8.96512
G1 X59.128 Y69.761 E9.95055
G1 X58.829 Y69.63 E9.96141
G1 X58.701 Y69.484 E9.96787
G1 X58.629 Y69.315 E9.97398
G1 X58.608 Y69.113 E9.98073
G1 X60.208 Y61.49 E10.2398
G1 X60.239 Y61.104 E10.25268
G1 X60.178 Y60.75 E10.26463
G1 X60.033 Y60.433 E10.27622
G1 X59.809 Y60.159 E10.28799
G1 X59.521 Y59.946 E10.29991
G1 X59.198 Y59.817 E10.31147
G1 X58.806 Y59.767 E10.32462
G1 X49.264 Y59.766 E10.64199
G1 X48.875 Y59.815 E10.65503
G1 X48.553 Y59.943 E10.66655
G1 X48.268 Y60.15 E10.67827
G1 X48.049 Y60.415 E10.6897
G1 X47.898 Y60.736 E10.7015
G1 X47.833 Y61.079 E10.71311
G1 X47.857 Y61.462 E10.72588
G1 X49.319 Y69.181 E10.98717
G1 X49.217 Y69.48 E10.99768
G1 X49.045 Y69.661 E11.00599
G1 X48.76 Y69.764 E11.01607
G1 X46.579 Y69.767 E11.08861
G1 X47.424 Y70.463 E11.12502
G1 X48.049 Y71.134 E11.15552
G1 X48.657 Y71.986 E11.19033
G1 X49.151 Y72.91 E11.22518
G1 X49.525 Y73.848 E11.25876
G1 X49.828 Y74.905 E11.29534
G1 X50.029 Y75.94 E11.3304
G1 X50.165 Y77.108 E11.36951
G1 X50.219 Y78.269 E11.40817
G1 X50.202 Y79.464 E11.44792
G1 X49.985 Y81.835 E11.52711
G1 X49.577 Y84.058 E11.60228
G1 X49.303 Y85.153 E11.63983
G1 X48.993 Y86.174 E11.67531
G1 X48.658 Y87.1 E11.70807
G1 X48.303 Y87.923 E11.73788
G1 X47.93 Y88.634 E11.76458
G1 X47.556 Y89.209 E11.7874
G1 X47.128 Y89.693 E11.80889
G1 X46.655 Y90.042 E11.82844
G1 X46.099 Y90.228 E11.84794
G1 X45.644 Y90.182 E11.86315
G1 X45.433 Y90.12 E11.87046
G1 X45.031 Y89.902 E11.88567
G1 X44.627 Y89.499 E11.90465
G1 X44.281 Y89.003 E11.92477
G1 X43.97 Y88.428 E11.94651
G1 X43.431 Y87.177 E11.99181
G1 X42.913 Y85.812 E12.04037
G1 X42.403 Y84.544 E12.08583
G1 X42.146 Y83.998 E12.1059
G1 X41.885 Y83.524 E12.1239
G1 X41.628 Y83.148 E12.13905
G1 X41.387 Y82.876 E12.15113
G1 X41.163 Y82.701 E12.16059
G1 X40.976 Y82.614 E12.16745
G1 X40.632 Y82.603 E12.1789
G1 X40.441 Y82.679 E12.18573
G1 X40.225 Y82.826 E12.19442
G1 X39.996 Y83.055 E12.2052
G1 X39.781 Y83.359 E12.21758
G1 X39.591 Y83.737 E12.23165
G1 X39.438 Y84.183 E12.24733
G1 X39.333 Y84.701 E12.26491
G1 X39.287 Y85.278 E12.28416
G1 X39.31 Y85.91 E12.3052
G1 X39.405 Y86.58 E12.32771
G1 X39.583 Y87.325 E12.35318
G1 X39.841 Y88.101 E12.38038
G1 X40.176 Y88.9 E12.4092
G1 X40.583 Y89.728 E12.43988
G1 X41.591 Y91.452 E12.50631
G1 X42.767 Y93.192 E12.57616
G1 X45.194 Y96.55 E12.71396
G1 X45.734 Y97.341 E12.74582
G1 X46.221 Y98.112 E12.77615
G1 X46.617 Y98.816 E12.80301
G1 X46.973 Y99.579 E12.83102
G1 X47.198 Y100.211 E12.85333
G1 X47.356 Y100.93 E12.87781
G1 X47.387 Y101.592 E12.89986
G1 X47.296 Y102.231 E12.92132
G1 X47.078 Y102.832 E12.94259
G1 X46.755 Y103.372 E12.96352
G1 X46.304 Y103.901 E12.98664
G1 X45.858 Y104.308 E13.00672
G1 X45.262 Y104.76 E13.0316
G1 X44.654 Y105.158 E13.05577
G1 X43.341 Y105.917 E13.10621
G1 X41.948 Y106.693 E13.15925
G1 X40.589 Y107.536 E13.21244
G1 X39.359 Y108.484 E13.26409
G1 X38.837 Y108.989 E13.28824
G1 X38.374 Y109.528 E13.31188
G1 X37.984 Y110.093 E13.33471
G1 X37.671 Y110.679 E13.35681
G1 X37.435 Y111.295 E13.37875
G1 X37.285 Y111.892 E13.39922
G1 X37.213 Y112.494 E13.41939
G1 X37.219 Y113.07 E13.43855
G1 X37.297 Y113.591 E13.45607
G1 X37.432 Y114.032 E13.47141
G1 X37.602 Y114.359 E13.48366
G1 X37.754 Y114.528 E13.49122
G1 X37.945 Y114.585 E13.49785
G1 X38.123 Y114.509 E13.50429
G1 X38.408 Y114.278 E13.51649
G1 X38.747 Y113.889 E13.53365
G1 X39.12 Y113.372 E13.55486
G1 X39.918 Y112.137 E13.60376
G1 X40.344 Y111.507 E13.62906
G1 X40.752 Y110.984 E13.65112
G1 X41.247 Y110.477 E13.67469
G1 X41.778 Y110.113 E13.6961
G1 X42.372 Y109.921 E13.71686
G1 X42.974 Y109.923 E13.73689
G1 X43.514 Y110.081 E13.7556
G1 X44.004 Y110.342 E13.77406
G1 X44.445 Y110.672 E13.79238
G1 X44.853 Y111.059 E13.81109
G1 X45.512 Y111.941 E13.84771
G1 X45.782 Y112.455 E13.86702
G1 X46.033 Y113.095 E13.88988
G1 X46.205 Y113.721 E13.91148
G1 X46.32 Y114.4 E13.93438
G1 X46.375 Y115.101 E13.95777
G1 X46.37 Y115.852 E13.98275
G1 X46.307 Y116.606 E14.00791
G1 X46.172 Y117.439 E14.03598
G1 X45.97 Y118.284 E14.06488
G1 X45.704 Y119.133 E14.09447
G1 X45.37 Y119.991 E14.12509
G1 X44.971 Y120.84 E14.15629
G1 X44.506 Y121.682 E14.18828
G1 X43.975 Y122.509 E14.22097
G1 X42.76 Y124.07 E14.28676
G1 X41.391 Y125.475 E14.35201
G1 X39.981 Y126.688 E14.41387
G1 X37.33 Y128.737 E14.52531
G1 X36.814 Y129.17 E14.54772
G1 X36.4 Y129.558 E14.56659
G1 X36.069 Y129.925 E14.58303
G1 X35.839 Y130.253 E14.59635
G1 X35.703 Y130.532 E14.60667
G1 X35.637 Y130.805 E14.61601
G1 X35.672 Y131.034 E14.62372
G1 X35.77 Y131.184 E14.62968
G1 X35.906 Y131.268 E14.635
G1 X36.205 Y131.254 E14.64495
G1 X36.415 Y131.167 E14.65251
G1 X36.666 Y131.007 E14.66241
G1 X36.952 Y130.776 E14.67464
G1 X37.617 Y130.128 E14.70552
G1 X38.337 Y129.386 E14.73991
G1 X39.104 Y128.674 E14.77472
G1 X39.875 Y128.12 E14.80629
G1 X40.315 Y127.901 E14.82264
G1 X40.759 Y127.765 E14.83809
G1 X41.233 Y127.727 E14.8539
G1 X41.716 Y127.806 E14.87018
G1 X42.172 Y127.99 E14.88654
G1 X42.584 Y128.25 E14.90274
G1 X43.02 Y128.61 E14.92154
G1 X43.421 Y129.039 E14.94108
G1 X43.795 Y129.533 E14.96168
G1 X44.123 Y130.09 E14.98318
G1 X44.403 Y130.736 E15.0066
G1 X44.58 Y131.395 E15.0293
G1 X44.658 Y132.075 E15.05206
G1 X44.623 Y132.747 E15.07444
G1 X44.475 Y133.454 E15.09847
G1 X44.189 Y134.191 E15.12476
G1 X43.864 Y134.783 E15.14722
G1 X43.38 Y135.471 E15.1752
G1 X42.859 Y136.08 E15.20186
G1 X42.27 Y136.672 E15.22963
G1 X40.989 Y137.792 E15.28623
G1 X38.31 Y139.905 E15.39971
G1 X37.141 Y140.915 E15.45109
G1 X36.154 Y141.932 E15.49823
G1 X35.741 Y142.445 E15.52014
G1 X35.418 Y142.917 E15.53916
G1 X35.139 Y143.403 E15.5578
G1 X34.92 Y143.882 E15.57531
G1 X34.757 Y144.356 E15.59199
G1 X34.654 Y144.786 E15.60669
G1 X34.601 Y145.195 E15.62041
G1 X34.597 Y145.564 E15.63268
G1 X34.631 Y145.872 E15.64299
G1 X34.752 Y146.215 E15.65509
G1 X35.012 Y146.005 E15.6662
G1 X35.27 Y145.737 E15.67858
G1 X35.561 Y145.382 E15.69384
G1 X36.227 Y144.438 E15.73227
G1 X36.931 Y143.384 E15.77443
G1 X37.679 Y142.325 E15.81755
G1 X38.031 Y141.888 E15.83621
G1 X38.441 Y141.443 E15.85634
G1 X38.805 Y141.125 E15.87241
G1 X39.222 Y140.866 E15.88874
G1 X39.668 Y140.713 E15.90442
G1 X40.111 Y140.68 E15.9192
G1 X40.536 Y140.743 E15.93349
G1 X40.941 Y140.868 E15.94758
G1 X41.681 Y141.236 E15.97507
G1 X42.05 Y141.514 E15.99044
G1 X42.391 Y141.87 E16.00683
G1 X42.648 Y142.31 E16.02378
G1 X42.798 Y142.814 E16.04127
G1 X42.828 Y143.4 E16.06079
G1 X42.764 Y143.965 E16.0797
G1 X42.638 Y144.528 E16.09889
G1 X42.441 Y145.164 E16.12103
G1 X41.461 Y147.883 E16.21716
G1 X41.066 Y149.304 E16.26622
G1 X40.854 Y150.676 E16.31239
G1 X40.824 Y151.297 E16.33307
G1 X40.839 Y151.889 E16.35277
G1 X40.892 Y152.428 E16.37078
G1 X40.973 Y152.899 E16.38668
G1 X41.076 Y153.325 E16.40125
G1 X41.187 Y153.658 E16.41293
G1 X41.293 Y153.899 E16.42169
G1 X41.451 Y154.16 E16.43183
G1 X41.597 Y154.733 E16.4515
G1 X41.824 Y155.284 E16.47132
G1 X42.169 Y155.911 E16.49512
G1 X42.64 Y156.61 E16.52316
G1 X43.229 Y157.336 E16.55425
G1 X43.927 Y158.041 E16.58725
G1 X44.726 Y158.678 E16.62123
G1 X45.589 Y159.185 E16.65453
G1 X46.5 Y159.519 E16.6868
G1 X46.927 Y159.602 E16.70127
G1 X47.351 Y159.628 E16.71539
G1 X47.751 Y159.597 E16.72874
G1 X48.116 Y159.509 E16.74123
G1 X48.479 Y159.356 E16.75433
G1 X48.795 Y159.151 E16.76686
G1 X49.082 Y158.884 E16.77989
G1 X49.33 Y158.558 E16.79352
G1 X49.545 Y158.173 E16.80818
G1 X49.718 Y157.727 E16.82409
G1 X49.836 Y157.266 E16.83992
G1 X49.905 Y156.772 E16.85651
G1 X49.921 Y156.273 E16.87312
G1 X49.886 Y155.778 E16.88962
G1 X49.802 Y155.305 E16.9056
G1 X49.679 Y154.876 E16.92044
G1 X49.31 Y154.085 E16.94947
G1 X48.833 Y153.444 E16.97605
G1 X48.3 Y152.893 E17.00155
G1 X47.719 Y152.315 E17.02881
G1 X47.176 Y151.621 E17.05811
G1 X46.91 Y151.132 E17.07663
G1 X46.729 Y150.643 E17.09397
G1 X46.604 Y150.17 E17.11024
G1 X46.498 Y149.518 E17.13221
G1 X46.445 Y148.858 E17.15424
G1 X46.427 Y148.124 E17.17866
G1 X46.44 Y147.304 E17.20593
G1 X46.483 Y146.398 E17.2361
G1 X46.551 Y145.387 E17.2698
G1 X48.459 Y124.295 E17.97419
G1 X48.84 Y120.44 E18.10303
G1 X49.26 Y116.468 E18.23588
G1 X49.705 Y112.559 E18.36673
G1 X50.204 Y108.445 E18.50457
G1 X50.628 Y105.131 E18.61569
G1 X51.087 Y101.689 E18.73118
G1 X51.95 Y95.489 E18.93938
G1 X53.022 Y88.092 E19.18798
G1 X53.327 Y86.135 E19.25386
G1 X53.625 Y84.403 E19.31231
G1 X53.938 Y82.879 E19.36406
G1 X54.299 Y81.538 E19.41025
G1 X54.712 Y80.415 E19.45004
G1 X55.273 Y79.327 E19.49076
G1 X55.968 Y78.379 E19.52985
G1 X56.83 Y77.524 E19.57023
G1 X57.767 Y76.811 E19.6094
G1 X58.889 Y76.141 E19.65286
G1 X60.088 Y75.562 E19.69715
G1 X61.37 Y75.05 E19.74306
G1 X62.759 Y74.591 E19.79172
G1 X64.18 Y74.206 E19.84068
G1 X65.649 Y73.884 E19.8907
G1 X67.119 Y73.636 E19.94028
G1 X68.618 Y73.451 E19.99052
G1 X70.128 Y73.336 E20.04089
G1 X71.647 Y73.288 E20.09144
G1 X73.082 Y73.306 E20.13917
G1 X73.688 Y73.187 E20.15971
G1 X74.358 Y73.013 E20.18273
G1 X74.233 Y72.902 E20.18829
G1 X74.1 Y72.596 E20.19939
G1 X74.153 Y72.256 E20.21083
G1 X74.275 Y72.079 E20.21798
G1 X74.485 Y71.941 E20.22634
G1 X74.701 Y71.902 E20.23364
G1 X127.929 Y76.654 E22.01105
G1 X128.161 Y76.763 E22.01958
G1 X128.281 Y76.887 E22.02532
G1 X128.386 Y77.134 E22.03425
G1 X128.379 Y77.381 E22.04246
G1 X128.233 Y77.77 E22.05628
G1 X128.209 Y78.076 E22.06649
G1 X128.347 Y78.282 E22.07474
G1 X128.733 Y78.459 E22.08886
G1 X129.091 Y78.573 E22.10136
G1 X130.007 Y78.764 E22.13248
G1 X132.392 Y79.147 E22.21282
G1 X133.668 Y79.402 E22.2561
G1 X134.961 Y79.738 E22.30054
G1 X136.225 Y80.153 E22.34478
G1 X137.445 Y80.645 E22.38854
G1 X138.554 Y81.174 E22.4294
G1 X139.559 Y81.725 E22.46752
G1 X140.53 Y82.321 E22.50542
G1 X141.39 Y82.91 E22.54009
G1 X142.228 Y83.564 E22.57544
G1 X142.962 Y84.212 E22.60801
G1 X143.646 Y84.91 E22.64051
G1 X144.27 Y85.649 E22.67268
G1 X144.842 Y86.444 E22.70526
G1 X145.32 Y87.227 E22.73577
G1 X145.748 Y88.066 E22.7671
G1 X146.144 Y89.018 E22.80139
G1 X146.442 Y89.933 E22.8334
G1 X146.686 Y90.92 E22.86721
G1 X146.862 Y91.931 E22.90134
G1 X146.984 Y93.013 E22.93756
G1 X147.051 Y94.161 E22.97581
G1 X147.065 Y95.35 E23.01536
G1 X147.025 Y96.664 E23.05908
G1 X146.936 Y98.018 E23.10421
G1 X146.784 Y99.583 E23.15651
G1 X142.961 Y143.281 E24.61546
G1 X142.523 Y146.747 E24.73166
G1 X141.87 Y150.19 E24.84821
G1 X140.986 Y153.672 E24.9677
G1 X139.891 Y157.109 E25.08768
G1 X138.589 Y160.484 E25.20799
G1 X137.857 Y162.141 E25.26824
G1 X137.077 Y163.761 E25.32804
G1 X136.256 Y165.323 E25.38674
G1 X135.382 Y166.842 E25.44502
G1 X134.453 Y168.306 E25.50269
G1 X133.505 Y169.657 E25.55759
G1 X132.513 Y170.907 E25.61066
G1 X131.458 Y172.064 E25.66274
G1 X130.391 Y173.053 E25.71113
G1 X129.309 Y173.874 E25.7563
G1 X128.235 Y174.506 E25.79775
G1 X127.068 Y174.994 E25.83982
G1 X125.926 Y175.276 E25.87895
G1 X124.744 Y175.371 E25.91839
G1 X123.648 Y175.303 E25.95491
G1 X122.588 Y175.112 E25.99073
G1 X119.812 Y174.357 E26.08642
G1 X119.051 Y174.227 E26.1121
G1 X118.388 Y174.227 E26.13415
G1 X118.121 Y174.277 E26.14318
G1 X117.869 Y174.364 E26.15205
G1 X117.635 Y174.488 E26.16086
G1 X117.408 Y174.659 E26.17031
G1 X117.194 Y174.876 E26.18045
G1 X117.003 Y175.13 E26.19102
G1 X116.645 Y175.829 E26.21714
G1 X116.395 Y176.678 E26.24657
G1 X116.266 Y177.64 E26.27886
G1 X116.277 Y178.646 E26.31232
G1 X116.436 Y179.626 E26.34534
G1 X116.739 Y180.51 E26.37642
G1 X117.193 Y181.275 E26.40601
G1 X117.451 Y181.571 E26.41907
G1 X117.754 Y181.838 E26.4325
G1 X118.088 Y182.061 E26.44586
G1 X118.46 Y182.242 E26.45962
G1 X118.86 Y182.378 E26.47367
G0 F6000 X118.755 Y182.765
;TYPE:WALL-OUTER
G1 F1200 X119.245 Y182.866 E26.49031
G1 X119.766 Y182.914 E26.50771
G1 X120.311 Y182.91 E26.52584
G1 X121.507 Y182.743 E26.566
G1 X122.778 Y182.38 E26.60997
G1 X124.145 Y181.828 E26.659
G1 X125.539 Y181.118 E26.71103
G1 X126.949 Y180.271 E26.76574
G1 X128.356 Y179.309 E26.82243
G1 X129.738 Y178.257 E26.8802
G1 X131.075 Y177.134 E26.93827
G1 X132.359 Y175.953 E26.99629
G1 X133.572 Y174.731 E27.05356
G1 X134.709 Y173.48 E27.10979
G1 X135.76 Y172.206 E27.16472
G1 X136.719 Y170.918 E27.21813
