;FLAVOR:Marlin
;TIME:11271
;Filament used: 7.6254m
;Layer height: 0.2
;MINX:44.316
;MINY:32.66
;MINZ:0.2
;MAXX:213.703
;MAXY:158.997
;MAXZ:5
;Generated with Cura_SteamEngine 5.2.1
M140 S50
M105
M190 S50
M104 S200
M105
M109 S200
M82 ;absolute extrusion mode
; Ender 3 Custom Start G-code
G92 E0 ; Reset Extruder
G28 ; Home all axes
G1 Z2.0 F3000 ; Move Z Axis up little to prevent scratching of Heat Bed
G1 X0.1 Y20 Z0.3 F5000.0 ; Move to start position
G1 X0.1 Y200.0 Z0.3 F1500.0 E15 ; Draw the first line
G1 X0.4 Y200.0 Z0.3 F5000.0 ; Move to side a little
G1 X0.4 Y20 Z0.3 F1500.0 E30 ; Draw the second line
G92 E0 ; Reset Extruder
G1 Z2.0 F3000 ; Move Z Axis up little to prevent scratching of Heat Bed
G1 X5 Y20 Z0.3 F5000.0 ; Move over to prevent blob squish
G92 E0
G92 E0
G1 F2700 E-5
;LAYER_COUNT:25
;LAYER:0
M107
;MESH:Quest Flat Holder To Store v1.stl
G0 F6000 X169.681 Y69.082 Z0.2
;TYPE:WALL-INNER
G1 F2700 E0
G1 F1200 X168.898 Y68.733 E0.02851
G1 X168.182 Y68.21 E0.058
G1 X167.62 Y67.588 E0.08588
G1 X167.206 Y66.87 E0.11345
G1 X166.926 Y66.032 E0.14284
G1 X166.844 Y65.256 E0.16879
G1 X166.841 Y53.639 E0.55517
G1 X166.928 Y52.829 E0.58227
G1 X167.192 Y52.005 E0.61105
G1 X167.621 Y51.264 E0.63953
G1 X168.189 Y50.631 E0.66781
G1 X168.889 Y50.12 E0.69664
G1 X169.669 Y49.775 E0.72501
G1 X170.513 Y49.595 E0.75371
G1 X171.385 Y49.6 E0.78271
G1 X172.211 Y49.777 E0.81081
G1 X172.987 Y50.119 E0.83901
G1 X173.688 Y50.628 E0.86783
G1 X174.266 Y51.271 E0.89658
G1 X174.689 Y52.008 E0.92485
G1 X174.955 Y52.825 E0.95343
G1 X175.036 Y53.597 E0.97924
G1 X175.04 Y65.176 E1.36436
G1 X174.956 Y66.01 E1.39224
G1 X174.689 Y66.847 E1.42146
G1 X174.259 Y67.593 E1.4501
G1 X173.689 Y68.222 E1.47833
G1 X172.99 Y68.733 E1.50713
G1 X172.212 Y69.079 E1.53545
G1 X171.365 Y69.258 E1.56425
G1 X170.511 Y69.257 E1.59265
G1 X169.681 Y69.082 E1.62086
G0 F6000 X169.816 Y68.701
;TYPE:WALL-OUTER
G1 F1200 X169.092 Y68.383 E1.64716
G1 X168.453 Y67.915 E1.67351
G1 X167.934 Y67.332 E1.69947
G1 X167.564 Y66.692 E1.72406
G1 X167.324 Y65.961 E1.74965
G1 X167.242 Y65.214 E1.77464
G1 X167.24 Y53.663 E2.15883
G1 X167.32 Y52.911 E2.18398
G1 X167.57 Y52.15 E2.21062
G1 X167.935 Y51.519 E2.23487
G1 X168.448 Y50.943 E2.26052
G1 X169.108 Y50.461 E2.28771
G1 X169.816 Y50.152 E2.3134
G1 X170.543 Y49.997 E2.33812
G1 X171.331 Y49.996 E2.36433
G1 X172.086 Y50.157 E2.39001
G1 X172.787 Y50.468 E2.41551
G1 X173.418 Y50.928 E2.44149
G1 X173.931 Y51.495 E2.46692
G1 X174.328 Y52.19 E2.49354
G1 X174.556 Y52.89 E2.51803
G1 X174.638 Y53.639 E2.54309
G1 X174.64 Y65.176 E2.92681
G1 X174.562 Y65.938 E2.95229
G1 X174.311 Y66.703 E2.97906
G1 X173.942 Y67.342 E3.00361
G1 X173.432 Y67.91 E3.029
G1 X172.772 Y68.391 E3.05616
G1 X172.072 Y68.7 E3.08161
G1 X171.303 Y68.858 E3.10772
G1 X170.567 Y68.857 E3.1322
G1 X169.816 Y68.701 E3.15771
G1 F2700 E-1.84229
G0 F6000 X169.717 Y69.192
G0 X150.748 Y137.596
G0 X151.107 Y138.587
;TYPE:WALL-INNER
G1 F2700 E3.15771
G1 F1200 X151.411 Y138.648 E3.16802
G1 X151.635 Y138.633 E3.17549
G1 X151.862 Y138.538 E3.18367
G1 X152.133 Y138.321 E3.19522
G1 X153.631 Y135.868 E3.29082
G1 X155.008 Y133.53 E3.38107
G1 X156.326 Y131.207 E3.4699
G1 X157.585 Y128.902 E3.55725
G1 X158.784 Y126.614 E3.64317
G1 X159.926 Y124.343 E3.72772
G1 X161.005 Y122.091 E3.81077
G1 X162.026 Y119.855 E3.89253
G1 X162.988 Y117.641 E3.97282
G1 X163.884 Y115.472 E4.05087
G1 X164.737 Y113.275 E4.12926
G1 X165.529 Y111.122 E4.20556
G1 X166.251 Y109.038 E4.27891
G1 X166.944 Y106.912 E4.35329
G1 X167.58 Y104.842 E4.42531
G1 X168.161 Y102.835 E4.4948
G1 X168.33 Y101.599 E4.5363
G1 X168.462 Y100.502 E4.57305
G1 X168.564 Y99.509 E4.60625
G1 X168.632 Y98.644 E4.63511
G1 X168.669 Y97.92 E4.65922
G1 X168.67 Y97.321 E4.67914
G1 X168.639 Y96.851 E4.69481
G1 X168.414 Y97.157 E4.70744
G1 X168.156 Y97.55 E4.72308
G1 X167.879 Y98.005 E4.74079
G1 X167.591 Y98.509 E4.7601
G1 X166.115 Y101.232 E4.86312
G1 X165.845 Y101.715 E4.88152
G1 X165.6 Y102.13 E4.89755
G1 X165.369 Y102.493 E4.91186
G1 X164.994 Y103.014 E4.93321
G1 X164.598 Y103.282 E4.94912
G1 X164.357 Y103.309 E4.95718
G1 X164.093 Y103.276 E4.96603
G1 X163.792 Y103.074 E4.97809
G1 X163.614 Y102.754 E4.99027
G1 X163.574 Y102.604 E4.99543
G1 X163.588 Y102.03 E5.01453
G1 X163.632 Y101.608 E5.02864
G1 X163.707 Y101.126 E5.04486
G1 X163.817 Y100.543 E5.0646
G1 X163.956 Y99.903 E5.08638
G1 X164.126 Y99.204 E5.1103
G1 X164.322 Y98.452 E5.13615
G1 X164.557 Y97.61 E5.16523
G1 X165.054 Y95.965 E5.22238
G1 X165.643 Y94.206 E5.28408
G1 X166.295 Y92.438 E5.34675
G1 X167.003 Y90.702 E5.40911
G1 X167.75 Y89.055 E5.46926
G1 X168.523 Y87.533 E5.52604
G1 X169.362 Y86.084 E5.58173
G1 X170.208 Y84.81 E5.63259
G1 X170.646 Y84.224 E5.65693
G1 X171.089 Y83.679 E5.68029
G1 X171.543 Y83.168 E5.70302
G1 X172.001 Y82.701 E5.72478
G1 X172.456 Y82.279 E5.74542
G1 X172.946 Y81.88 E5.76643
G1 X173.429 Y81.531 E5.78625
G1 X173.705 Y81.356 E5.79712
G1 X174.473 Y79.089 E5.87673
G1 X175.398 Y76.712 E5.96157
G1 X176.4 Y74.485 E6.04279
G1 X177.513 Y72.346 E6.12299
G1 X178.757 Y70.272 E6.20343
G1 X180.07 Y68.367 E6.28038
G1 X181.541 Y66.507 E6.35925
G1 X183.064 Y64.821 E6.43482
G1 X183.35 Y64.489 E6.4494
G1 X183.591 Y64.148 E6.46328
G1 X183.798 Y63.787 E6.47712
G1 X183.971 Y63.405 E6.49107
G1 X184.112 Y63 E6.50534
G1 X184.204 Y62.608 E6.51873
G1 X184.265 Y62.173 E6.53334
G1 X184.285 Y61.764 E6.54696
G1 X184.285 Y48.69 E6.9818
G1 X184.285 Y48.488 E6.98852
G1 X184.215 Y47.699 E7.01486
G1 X184.016 Y46.955 E7.04048
G1 X183.692 Y46.261 E7.06595
G1 X183.254 Y45.636 E7.09134
G1 X182.709 Y45.091 E7.11697
G1 X182.084 Y44.653 E7.14236
G1 X181.39 Y44.329 E7.16783
G1 X180.646 Y44.129 E7.19345
G1 X179.876 Y44.061 E7.21916
G1 X178.006 Y44.059 E7.28136
G1 X177.763 Y43.932 E7.29048
G1 X177.596 Y43.725 E7.29933
G1 X177.537 Y43.513 E7.30665
G1 X177.539 Y38.384 E7.47724
G1 X177.583 Y38.045 E7.48861
G1 X177.739 Y37.665 E7.50227
G1 X177.997 Y37.324 E7.51649
G1 X178.332 Y37.068 E7.53051
G1 X178.72 Y36.908 E7.54447
G1 X179.131 Y36.86 E7.55824
G1 X182.703 Y36.86 E7.67704
G1 X182.915 Y36.736 E7.68521
G1 X183.035 Y36.527 E7.69323
G1 X183.035 Y33.39 E7.79756
G1 X182.914 Y33.183 E7.80554
G1 X182.705 Y33.06 E7.8136
G1 X172.566 Y33.06 E8.15083
G1 X172.356 Y33.183 E8.15892
G1 X172.235 Y33.39 E8.1669
G1 X172.233 Y43.513 E8.50359
G1 X172.174 Y43.725 E8.51091
G1 X172.026 Y43.916 E8.51895
G1 X171.702 Y44.057 E8.5307
G1 X138.087 Y44.059 E9.64874
G1 X137.838 Y43.983 E9.6574
G1 X137.73 Y43.904 E9.66185
G1 X137.585 Y43.702 E9.67012
G1 X137.537 Y43.513 E9.6766
G1 X137.539 Y38.384 E9.84719
G1 X137.583 Y38.045 E9.85856
G1 X137.739 Y37.665 E9.87223
G1 X137.997 Y37.324 E9.88645
G1 X138.332 Y37.068 E9.90047
G1 X138.72 Y36.908 E9.91443
G1 X139.131 Y36.86 E9.92819
G1 X142.703 Y36.86 E10.047
G1 X142.915 Y36.736 E10.05517
G1 X143.035 Y36.527 E10.06318
G1 X143.035 Y33.39 E10.16752
G1 X142.914 Y33.183 E10.1755
G1 X142.705 Y33.06 E10.18356
G1 X132.566 Y33.06 E10.52079
G1 X132.356 Y33.183 E10.52888
G1 X132.235 Y33.39 E10.53685
G1 X132.233 Y43.513 E10.87355
G1 X132.185 Y43.702 E10.88003
G1 X132.04 Y43.904 E10.8883
G1 X131.897 Y44.001 E10.89405
G1 X131.705 Y44.06 E10.90073
G1 X98.017 Y44.06 E12.0212
G1 X97.814 Y43.968 E12.02861
G1 X97.599 Y43.731 E12.03925
G1 X97.537 Y43.513 E12.04679
G1 X97.539 Y38.384 E12.21738
G1 X97.583 Y38.045 E12.22875
G1 X97.739 Y37.665 E12.24242
G1 X97.997 Y37.324 E12.25664
G1 X98.332 Y37.068 E12.27066
G1 X98.72 Y36.908 E12.28462
G1 X99.131 Y36.86 E12.29838
G1 X102.703 Y36.86 E12.41719
G1 X102.915 Y36.736 E12.42536
G1 X103.035 Y36.527 E12.43337
G1 X103.035 Y33.39 E12.53771
G1 X102.914 Y33.183 E12.54568
G1 X102.705 Y33.06 E12.55375
G1 X92.566 Y33.06 E12.89097
G1 X92.356 Y33.183 E12.89907
G1 X92.235 Y33.39 E12.90704
G1 X92.233 Y43.513 E13.24374
G1 X92.171 Y43.731 E13.25127
G1 X91.997 Y43.94 E13.26032
G1 X91.706 Y44.057 E13.27075
G1 X64.914 Y44.061 E14.16186
G1 X65.347 Y44.638 E14.18585
G1 X65.897 Y45.67 E14.22475
G1 X66.268 Y46.646 E14.25947
G1 X66.565 Y47.857 E14.30095
G1 X66.726 Y49.053 E14.34108
G1 X66.78 Y50.252 E14.381
G1 X66.737 Y51.583 E14.4253
G1 X66.604 Y52.89 E14.46899
G1 X66.392 Y54.182 E14.51254
G1 X66.115 Y55.459 E14.556
G1 X65.769 Y56.732 E14.59987
G1 X65.372 Y57.95 E14.64248
G1 X64.955 Y59.047 E14.68152
G1 X64.502 Y60.072 E14.71879
G1 X64.033 Y60.973 E14.75257
G1 X63.555 Y61.744 E14.78275
G1 X63.282 Y62.114 E14.79804
G1 X63.027 Y62.42 E14.81129
G1 X62.768 Y62.681 E14.82352
G1 X62.384 Y63.005 E14.84023
G1 X61.947 Y63.208 E14.85625
G1 X61.321 Y63.299 E14.87729
G1 X60.826 Y63.13 E14.89469
G1 X60.617 Y63.006 E14.90277
G1 X60.247 Y62.667 E14.91946
G1 X59.906 Y62.151 E14.94003
G1 X59.614 Y61.526 E14.96298
G1 X59.347 Y60.788 E14.98908
G1 X59.121 Y60.04 E15.01507
G1 X58.694 Y58.479 E15.0689
G1 X58.482 Y57.74 E15.09447
G1 X58.259 Y57.05 E15.11859
G1 X58.026 Y56.457 E15.13978
G1 X57.783 Y55.965 E15.15803
G1 X57.542 Y55.601 E15.17255
G1 X57.258 Y55.309 E15.1861
G1 X57.017 Y55.204 E15.19484
G1 X56.778 Y55.181 E15.20283
G1 X56.494 Y55.281 E15.21284
G1 X56.234 Y55.45 E15.22315
G1 X55.957 Y55.722 E15.23607
G1 X55.693 Y56.087 E15.25105
G1 X55.465 Y56.536 E15.2678
G1 X55.281 Y57.097 E15.28744
G1 X55.168 Y57.729 E15.30879
G1 X55.131 Y58.42 E15.3318
G1 X55.177 Y59.194 E15.35759
G1 X55.318 Y60.039 E15.38609
G1 X55.55 Y60.928 E15.41665
G1 X55.876 Y61.889 E15.4504
G1 X56.285 Y62.871 E15.48578
G1 X56.765 Y63.882 E15.523
G1 X57.298 Y64.903 E15.56131
G1 X58.478 Y66.969 E15.64044
G1 X59.642 Y68.94 E15.71658
G1 X60.184 Y69.894 E15.75307
G1 X60.669 Y70.813 E15.78763
G1 X61.062 Y71.657 E15.8186
G1 X61.399 Y72.545 E15.85019
G1 X61.596 Y73.274 E15.8753
G1 X61.701 Y74.083 E15.90244
G1 X61.655 Y74.822 E15.92706
G1 X61.454 Y75.517 E15.95113
G1 X61.321 Y75.71 E15.95892
G1 X61.182 Y75.811 E15.96464
G1 X60.877 Y75.885 E15.97508
G1 X52.565 Y74.419 E16.2558
G1 X52.292 Y74.258 E16.26634
G1 X50.527 Y71.503 E16.37517
G1 X47.82 Y73.239 E16.48213
G1 X45.191 Y88.153 E16.98582
G1 X47.141 Y90.709 E17.09274
G1 X49.738 Y88.726 E17.20142
G1 X50.054 Y88.668 E17.21211
G1 X58.402 Y90.14 E17.49405
G1 X58.574 Y90.241 E17.50068
G1 X58.705 Y90.383 E17.50711
G1 X58.782 Y90.549 E17.51319
G1 X58.788 Y90.867 E17.52377
G1 X58.459 Y91.713 E17.55396
G1 X58.054 Y92.564 E17.58531
G1 X57.619 Y93.341 E17.61493
G1 X57.081 Y94.172 E17.64785
G1 X56.505 Y94.942 E17.67983
G1 X55.873 Y95.689 E17.71238
G1 X55.193 Y96.398 E17.74505
G1 X54.473 Y97.065 E17.7777
G1 X53.723 Y97.694 E17.81025
G1 X52.947 Y98.281 E17.84262
G1 X51.416 Y99.316 E17.90408
G1 X49.316 Y100.626 E17.9864
G1 X48.729 Y101.014 E18.00981
G1 X48.24 Y101.37 E18.02992
G1 X47.834 Y101.713 E18.0476
G1 X47.526 Y102.032 E18.06235
G1 X47.324 Y102.313 E18.07386
G1 X47.21 Y102.554 E18.08273
G1 X47.182 Y102.896 E18.09414
G1 X47.306 Y103.122 E18.10272
G1 X47.565 Y103.212 E18.11183
G1 X47.796 Y103.167 E18.11966
G1 X48.038 Y103.068 E18.12836
G1 X48.325 Y102.898 E18.13945
G1 X48.647 Y102.666 E18.15265
G1 X50.19 Y101.38 E18.21946
G1 X51.02 Y100.776 E18.2536
G1 X51.452 Y100.524 E18.27024
G1 X51.898 Y100.323 E18.28651
G1 X52.314 Y100.197 E18.30097
G1 X52.773 Y100.147 E18.31632
G1 X53.262 Y100.213 E18.33273
G1 X53.698 Y100.374 E18.34819
G1 X54.124 Y100.642 E18.36493
G1 X54.506 Y100.977 E18.38183
G1 X54.88 Y101.395 E18.40049
G1 X55.226 Y101.887 E18.42049
G1 X55.532 Y102.439 E18.44148
G1 X55.799 Y103.111 E18.46553
G1 X55.959 Y103.718 E18.48641
G1 X56.034 Y104.399 E18.5092
G1 X55.996 Y105.119 E18.53318
G1 X55.858 Y105.771 E18.55535
G1 X55.615 Y106.4 E18.57777
G1 X55.258 Y107.044 E18.60226
G1 X54.763 Y107.709 E18.62984
G1 X54.272 Y108.242 E18.65394
G1 X53.638 Y108.823 E18.68254
G1 X53.011 Y109.323 E18.70921
G1 X51.588 Y110.317 E18.76695
G1 X50.144 Y111.239 E18.82393
G1 X48.745 Y112.148 E18.87942
G1 X48.107 Y112.595 E18.90533
G1 X47.506 Y113.048 E18.93036
G1 X46.961 Y113.502 E18.95395
G1 X46.488 Y113.944 E18.97549
G1 X46.059 Y114.402 E18.99636
G1 X45.693 Y114.857 E19.01578
G1 X45.386 Y115.312 E19.03404
G1 X45.143 Y115.759 E19.05096
G1 X44.951 Y116.213 E19.06735
G1 X44.822 Y116.632 E19.08193
G1 X44.745 Y117.017 E19.09499
G1 X44.718 Y117.37 E19.10677
G1 X44.733 Y117.66 E19.11643
G1 X44.817 Y117.954 E19.1266
G1 X45.161 Y117.709 E19.14064
G1 X45.429 Y117.47 E19.15259
G1 X45.78 Y117.105 E19.16943
G1 X46.141 Y116.693 E19.18765
G1 X47.341 Y115.232 E19.25053
G1 X48.145 Y114.306 E19.29132
G1 X48.559 Y113.888 E19.31089
G1 X48.959 Y113.537 E19.32859
G1 X49.413 Y113.225 E19.34691
G1 X49.84 Y113.025 E19.36259
G1 X50.305 Y112.933 E19.37836
G1 X50.744 Y112.96 E19.39299
G1 X51.185 Y113.088 E19.40826
G1 X51.492 Y113.222 E19.4194
G1 X51.858 Y113.427 E19.43335
G1 X52.207 Y113.673 E19.44755
G1 X52.55 Y113.991 E19.46311
G1 X52.862 Y114.4 E19.48022
G1 X53.061 Y114.862 E19.49695
G1 X53.15 Y115.388 E19.5147
G1 X53.117 Y115.958 E19.53369
G1 X53.009 Y116.459 E19.55073
G1 X52.807 Y117.066 E19.57201
G1 X52.546 Y117.685 E19.59435
G1 X52.256 Y118.305 E19.61712
G1 X51.936 Y118.962 E19.64142
G1 X51.31 Y120.3 E19.69056
G1 X51.029 Y120.981 E19.71506
G1 X50.789 Y121.663 E19.73911
G1 X50.598 Y122.332 E19.76225
G1 X50.456 Y122.986 E19.7845
G1 X50.366 Y123.621 E19.80584
G1 X50.328 Y124.194 E19.82494
G1 X50.329 Y124.732 E19.84283
G1 X50.365 Y125.215 E19.85894
G1 X50.429 Y125.634 E19.87304
G1 X50.506 Y125.965 E19.88434
G1 X50.59 Y126.23 E19.89359
G1 X50.723 Y126.497 E19.90351
G1 X50.812 Y127.093 E19.92355
G1 X50.979 Y127.637 E19.94248
G1 X51.266 Y128.311 E19.96684
G1 X51.668 Y129.048 E19.99476
G1 X52.185 Y129.827 E20.02586
G1 X52.813 Y130.598 E20.05893
G1 X53.554 Y131.315 E20.09323
G1 X53.946 Y131.622 E20.10979
G1 X54.359 Y131.897 E20.12629
G1 X54.785 Y132.129 E20.14243
G1 X55.232 Y132.314 E20.15852
G1 X55.651 Y132.438 E20.17305
G1 X56.071 Y132.505 E20.1872
G1 X56.468 Y132.511 E20.2004
G1 X56.844 Y132.459 E20.21303
G1 X57.221 Y132.344 E20.22614
G1 X57.545 Y132.171 E20.23835
G1 X57.861 Y131.929 E20.25159
G1 X58.143 Y131.628 E20.26531
G1 X58.393 Y131.266 E20.27994
G1 X58.602 Y130.853 E20.29534
G1 X58.771 Y130.381 E20.31201
G1 X58.884 Y129.907 E20.32822
G1 X58.948 Y129.411 E20.34485
G1 X58.961 Y128.915 E20.36135
G1 X58.924 Y128.436 E20.37733
G1 X58.839 Y127.984 E20.39263
G1 X58.717 Y127.575 E20.40683
G1 X58.553 Y127.175 E20.42121
G1 X58.362 Y126.826 E20.43444
G1 X58.146 Y126.501 E20.44742
G1 X57.625 Y125.851 E20.47512
G1 X57.131 Y125.254 E20.5009
G1 X56.645 Y124.494 E20.5309
G1 X56.452 Y124.025 E20.54777
G1 X56.319 Y123.553 E20.56408
G1 X56.231 Y123.014 E20.58224
G1 X56.189 Y122.392 E20.60298
G1 X56.198 Y121.698 E20.62606
G1 X56.25 Y120.966 E20.65047
G1 X56.343 Y120.151 E20.67775
G1 X56.472 Y119.253 E20.70793
G1 X56.634 Y118.269 E20.7411
G1 X57.066 Y115.918 E20.8206
G1 X60.535 Y97.563 E21.4419
G1 X61.284 Y93.751 E21.57111
G1 X62.103 Y89.74 E21.70727
G1 X62.921 Y85.88 E21.8385
G1 X63.743 Y82.146 E21.96567
G1 X64.95 Y76.856 E22.14614
G1 X66.089 Y72.031 E22.31103
G1 X68.57 Y61.842 E22.65982
G1 X69.062 Y59.922 E22.72574
G1 X69.522 Y58.236 E22.78387
G1 X69.749 Y57.47 E22.81044
G1 X69.973 Y56.768 E22.83495
G1 X70.213 Y56.083 E22.85909
G1 X70.462 Y55.451 E22.88168
G1 X70.727 Y54.864 E22.9031
G1 X70.996 Y54.344 E22.92258
G1 X71.305 Y53.83 E22.94252
G1 X71.657 Y53.323 E22.96305
G1 X72.01 Y52.895 E22.9815
G1 X72.425 Y52.464 E23.0014
G1 X72.887 Y52.053 E23.02197
G1 X73.355 Y51.698 E23.04151
G1 X73.826 Y51.385 E23.06032
G1 X74.404 Y51.052 E23.0825
G1 X75.506 Y50.529 E23.12308
G1 X76.804 Y50.044 E23.16916
G1 X78.152 Y49.654 E23.21584
G1 X79.598 Y49.328 E23.26514
G1 X81.008 Y49.09 E23.3127
G1 X82.488 Y48.912 E23.36228
G1 X83.99 Y48.802 E23.41237
G1 X85.496 Y48.764 E23.46247
G1 X87.011 Y48.793 E23.51287
G1 X88.529 Y48.89 E23.56346
G1 X89.962 Y49.046 E23.61141
G1 X90.413 Y49.005 E23.62647
G1 X90.837 Y48.949 E23.64069
G1 X91.186 Y48.883 E23.65251
G1 X91.503 Y48.796 E23.66344
G1 X91.564 Y48.598 E23.67033
G1 X91.7 Y48.432 E23.67747
G1 X91.986 Y48.297 E23.68799
G1 X95.923 Y48.095 E23.81911
G1 X99.62 Y48.002 E23.94211
G1 X103.373 Y48.004 E24.06693
G1 X107.11 Y48.107 E24.19127
G1 X110.829 Y48.32 E24.31517
G1 X114.53 Y48.645 E24.43874
G1 X118.21 Y49.087 E24.56202
G1 X121.856 Y49.65 E24.68472
G1 X125.505 Y50.34 E24.80824
G1 X129.12 Y51.152 E24.93147
G1 X132.714 Y52.083 E25.05495
